;START_OF_HEADER
;HEADER_VERSION:0.1
;FLAVOR:Griffin
;GENERATOR.NAME:Cura_SteamEngine
;GENERATOR.VERSION:master
;GENERATOR.BUILD_DATE:2018-12-31
;TARGET_MACHINE.NAME:Ultimaker 3
;EXTRUDER_TRAIN.0.INITIAL_TEMPERATURE:205
;EXTRUDER_TRAIN.0.MATERIAL.VOLUME_USED:2972
;EXTRUDER_TRAIN.0.MATERIAL.GUID:506c9f0d-e3aa-4bd4-b2d2-23e2425b1aa9
;EXTRUDER_TRAIN.0.NOZZLE.DIAMETER:0.4
;EXTRUDER_TRAIN.0.NOZZLE.NAME:unknown
;BUILD_PLATE.TYPE:glass
;BUILD_PLATE.INITIAL_TEMPERATURE:60
;PRINT.TIME:2599
;PRINT.SIZE.MIN.X:0
;PRINT.SIZE.MIN.Y:0
;PRINT.SIZE.MIN.Z:0
;PRINT.SIZE.MAX.X:146.227
;PRINT.SIZE.MAX.Y:117.568
;PRINT.SIZE.MAX.Z:22.62
;END_OF_HEADER

;Generated with Cura_SteamEngine master
T0
M82 ;absolute extrusion mode

G92 E0
M109 S205
G0 F15000 X0.00 Y0.00 Z0.00
G280
G1 F1500 E-6.5
;LAYER_COUNT:151
;LAYER:0
M107
M204 S625
M205 X6 Y6
G0 F3750 X90.651 Y98.536 Z0.27
M204 S500
M205 X5 Y5
;TYPE:SKIRT
G1 F1500 E0
G1 F1200 X91.084 Y98.215 E0.00979
G1 X91.559 Y97.962 E0.01956
G1 X92.067 Y97.782 E0.02934
G1 X92.727 Y97.666 E0.04151
G1 X94.427 Y97.527 E0.07248
G1 X94.716 Y97.515 E0.07773
G1 X99.705 Y97.505 E0.16831
G1 X99.976 Y97.515 E0.17323
G1 X103.012 Y97.737 E0.2285
G1 X108.605 Y97.897 E0.33009
G1 X127.678 Y97.862 E0.67639
G1 X133.171 Y97.558 E0.77627
G1 X133.312 Y97.552 E0.77883
G1 X138.917 Y97.46 E0.88061
G1 X139.657 Y97.524 E0.8941
G1 X140.632 Y97.71 E0.91212
G1 X141.152 Y97.85 E0.9219
G1 X141.646 Y98.065 E0.93168
G1 X142.102 Y98.351 E0.94145
G1 X142.582 Y98.774 E0.95307
G1 X142.914 Y99.123 E0.96181
G1 X143.255 Y99.54 E0.97159
G1 X143.619 Y100.192 E0.98515
G1 X145.913 Y105.533 E1.09069
G1 X146.089 Y106.043 E1.10049
G1 X146.187 Y106.572 E1.11025
G1 X146.207 Y106.888 E1.116
G1 X146.227 Y107.815 E1.13284
G1 X146.199 Y108.352 E1.1426
G1 X146.091 Y108.88 E1.15239
G1 X145.873 Y109.459 E1.16362
G1 X143.116 Y115.226 E1.27968
G1 X142.848 Y115.693 E1.28945
G1 X142.514 Y116.115 E1.29922
G1 X142.122 Y116.484 E1.309
G1 X141.679 Y116.79 E1.31877
G1 X141.196 Y117.028 E1.32855
G1 X140.892 Y117.134 E1.33439
G1 X140.512 Y117.249 E1.3416
G1 X139.987 Y117.367 E1.35137
G1 X139.524 Y117.404 E1.35981
G1 X135.672 Y117.471 E1.42975
G1 X135.448 Y117.468 E1.43382
G1 X130.709 Y117.258 E1.51995
G1 X125.185 Y117.104 E1.62028
G1 X106.497 Y117.144 E1.95959
G1 X99.771 Y117.563 E2.08194
G1 X99.431 Y117.568 E2.08812
G1 X93.294 Y117.374 E2.1996
G1 X93.26 Y117.38 E2.20022
G1 X92.722 Y117.386 E2.20999
G1 X92.189 Y117.312 E2.21976
G1 X91.672 Y117.161 E2.22954
G1 X91.21 Y116.949 E2.23877
G1 X90.829 Y116.741 E2.24665
G1 X90.376 Y116.449 E2.25644
G1 X89.972 Y116.093 E2.26621
G1 X89.626 Y115.681 E2.27598
G1 X89.343 Y115.222 E2.28577
G1 X89.184 Y114.87 E2.29278
G1 X87.013 Y109.282 E2.40163
G1 X86.856 Y108.767 E2.4114
G1 X86.777 Y108.234 E2.42119
G1 X86.767 Y107.944 E2.42646
G1 X86.773 Y106.982 E2.44392
G1 X86.816 Y106.446 E2.45368
G1 X86.939 Y105.921 E2.46348
G1 X87.07 Y105.566 E2.47035
G1 X89.389 Y100.195 E2.57656
G1 X89.639 Y99.718 E2.58634
G1 X89.97 Y99.267 E2.5965
G1 X90.271 Y98.917 E2.60488
G1 X90.651 Y98.536 E2.61465
M204 S625
M205 X6 Y6
G0 F3750 X90.949 Y98.834
M204 S500
M205 X5 Y5
G1 F1200 X91.36 Y98.539 E2.62384
G1 X91.812 Y98.311 E2.63303
G1 X92.295 Y98.158 E2.64223
G1 X92.761 Y98.085 E2.65079
G1 X94.461 Y97.946 E2.68176
G1 X94.717 Y97.935 E2.68641
G1 X99.706 Y97.925 E2.77699
G1 X99.946 Y97.934 E2.78135
G1 X102.993 Y98.157 E2.83682
G1 X108.593 Y98.317 E2.93854
G1 X127.685 Y98.282 E3.28518
G1 X133.195 Y97.977 E3.38537
G1 X133.319 Y97.972 E3.38762
G1 X138.924 Y97.88 E3.4894
G1 X139.579 Y97.937 E3.50134
G1 X140.554 Y98.123 E3.51936
G1 X141.042 Y98.257 E3.52855
G1 X141.503 Y98.466 E3.53774
G1 X141.926 Y98.745 E3.54694
G1 X142.278 Y99.064 E3.55557
G1 X142.61 Y99.413 E3.56431
G1 X142.929 Y99.806 E3.5735
G1 X143.233 Y100.358 E3.58494
G1 X145.527 Y105.699 E3.69048
G1 X145.69 Y106.179 E3.69969
G1 X145.787 Y106.897 E3.71284
G1 X145.807 Y107.824 E3.72967
G1 X145.778 Y108.329 E3.73886
G1 X145.67 Y108.824 E3.74806
G1 X145.494 Y109.278 E3.7569
G1 X142.737 Y115.045 E3.87296
G1 X142.483 Y115.483 E3.88215
G1 X142.164 Y115.876 E3.89134
G1 X141.787 Y116.213 E3.90052
G1 X141.361 Y116.487 E3.90972
G1 X140.771 Y116.732 E3.92131
G1 X140.391 Y116.847 E3.92852
G1 X139.896 Y116.955 E3.93772
G1 X139.517 Y116.985 E3.94462
G1 X135.665 Y117.052 E4.01457
G1 X135.467 Y117.049 E4.01817
G1 X130.7 Y116.837 E4.1048
G1 X125.196 Y116.684 E4.20477
G1 X106.487 Y116.724 E4.54446
G1 X99.745 Y117.144 E4.66711
G1 X99.444 Y117.148 E4.67257
G1 X93.22 Y116.952 E4.78563
G1 X92.922 Y116.973 E4.79106
G1 X92.418 Y116.929 E4.80024
G1 X91.927 Y116.806 E4.80943
G1 X91.411 Y116.58 E4.81966
G1 X91.03 Y116.372 E4.82754
G1 X90.606 Y116.096 E4.83673
G1 X90.231 Y115.755 E4.84593
G1 X89.914 Y115.36 E4.85512
G1 X89.576 Y114.717 E4.86831
G1 X87.405 Y109.129 E4.97716
G1 X87.259 Y108.644 E4.98635
G1 X87.187 Y107.947 E4.99908
G1 X87.193 Y106.985 E5.01654
G1 X87.236 Y106.48 E5.02574
G1 X87.358 Y105.989 E5.03493
G1 X87.456 Y105.733 E5.03991
G1 X89.775 Y100.362 E5.14613
G1 X90.012 Y99.914 E5.15533
G1 X90.288 Y99.541 E5.16375
G1 X90.589 Y99.191 E5.17213
G1 X90.949 Y98.834 E5.18134
M204 S625
M205 X6 Y6
G0 F3750 X93.058 Y101.483
M204 S500
M205 X5 Y5
;TYPE:SUPPORT
G1 F1200 X93.23 Y101.425 E5.18463
G1 X93.759 Y101.42 E5.19424
G1 X94.234 Y101.352 E5.20295
G1 X95.12 Y101.36 E5.21904
G1 X95.134 Y101.353 E5.21932
G1 X97.354 Y101.368 E5.25963
G1 X97.88 Y101.537 E5.26966
G1 X98.638 Y101.413 E5.28361
G1 X98.993 Y101.443 E5.29008
G1 X99.571 Y101.353 E5.3007
G1 X99.616 Y101.435 E5.30239
G1 X99.755 Y101.508 E5.30525
G1 X99.431 Y101.721 E5.31229
G1 X98.708 Y102.345 E5.32963
G1 X98.078 Y103.058 E5.3469
G1 X97.539 Y103.854 E5.36435
G1 X97.267 Y104.403 E5.37548
G1 X97.161 Y104.506 E5.37816
G1 X97.16 Y104.619 E5.38021
G1 X97.115 Y104.709 E5.38204
G1 X96.805 Y105.618 E5.39948
G1 X96.618 Y106.55 E5.41674
G1 X96.557 Y107.508 E5.43417
G1 X96.62 Y108.466 E5.4516
G1 X96.809 Y109.398 E5.46886
G1 X97.121 Y110.305 E5.48628
G1 X97.547 Y111.16 E5.50362
G1 X98.087 Y111.955 E5.52107
G1 X98.72 Y112.666 E5.53835
G1 X99.445 Y113.288 E5.5557
G1 X99.767 Y113.498 E5.56268
G1 X99.49 Y113.646 E5.56838
G1 X99.446 Y113.715 E5.56987
G1 X98.276 Y113.478 E5.59154
G1 X97.635 Y113.603 E5.6034
G1 X97.449 Y113.563 E5.60685
G1 X93.025 Y113.583 E5.68717
G1 X92.859 Y113.545 E5.69027
G1 X92.741 Y113.465 E5.69286
G1 X92.719 Y113.439 E5.69347
G1 X92.682 Y113.339 E5.69541
G1 X92.66 Y108.92 E5.77564
G1 X92.409 Y108.523 E5.78417
G1 X90.933 Y107.815 E5.81389
G1 X90.628 Y107.815 E5.81943
G1 X90.596 Y107.809 E5.82002
G1 X90.59 Y107.082 E5.83322
G1 X90.636 Y106.997 E5.83498
G1 X90.66 Y106.97 E5.83563
G1 X90.798 Y106.904 E5.83841
G1 X90.975 Y106.872 E5.84168
G1 X92.785 Y106.704 E5.87468
G1 X93.131 Y106.327 E5.88397
G1 X93.147 Y102.527 E5.95296
G1 X92.941 Y102.241 E5.95936
G1 X92.942 Y101.634 E5.97038
G1 X92.99 Y101.541 E5.97228
G1 X93.058 Y101.483 E5.97391
M204 S625
M205 X6 Y6
G0 F3750 X93.32 Y101.634
M204 S500
M205 X5 Y5
G1 F1200 X93.32 Y102.408 E5.98796
M204 S625
M205 X6 Y6
G0 F3750 X93.357 Y102.652
M204 S500
M205 X5 Y5
G1 F1200 X98.156 Y102.652 E6.07509
M204 S625
M205 X6 Y6
G0 F3750 X97.986 Y102.846
M204 S500
M205 X5 Y5
G1 F1200 X97.986 Y101.732 E6.09532
M204 S625
M205 X6 Y6
G0 F3750 X95.653 Y101.567
M204 S500
M205 X5 Y5
G1 F1200 X95.653 Y113.362 E6.30947
M204 S625
M205 X6 Y6
G0 F3750 X93.32 Y113.372
M204 S500
M205 X5 Y5
G1 F1200 X93.32 Y106.431 E6.43549
M204 S625
M205 X6 Y6
G0 F3750 X93.347 Y104.985
M204 S500
M205 X5 Y5
G1 F1200 X96.799 Y104.985 E6.49817
M204 S625
M205 X6 Y6
G0 F3750 X96.358 Y107.318
M204 S500
M205 X5 Y5
G1 F1200 X90.801 Y107.318 E6.59906
M204 S625
M205 X6 Y6
G0 F3750 X90.987 Y107.083
M204 S500
M205 X5 Y5
G1 F1200 X90.987 Y107.607 E6.60858
M204 S625
M205 X6 Y6
G0 F3750 X92.873 Y109.651
M204 S500
M205 X5 Y5
G1 F1200 X96.675 Y109.651 E6.6776
M204 S625
M205 X6 Y6
G0 F3750 X97.854 Y111.984
M204 S500
M205 X5 Y5
G1 F1200 X92.885 Y111.984 E6.76782
M204 S625
M205 X6 Y6
G0 F3750 X97.986 Y112.157
M204 S500
M205 X5 Y5
G1 F1200 X97.986 Y113.321 E6.78896
M204 S625
M205 X6 Y6
G1 F1500 E0.28896
G0 F3750 X102.244 Y114.001
G0 X130.791 Y113.996
G0 X133.193 Y113.525
M204 S500
M205 X5 Y5
G1 F1500 E6.78896
G1 F1200 X133.569 Y113.279 E6.79711
G1 X134.292 Y112.655 E6.81445
G1 X134.922 Y111.942 E6.83173
G1 X135.461 Y111.146 E6.84918
G1 X135.773 Y110.517 E6.86193
G1 X135.913 Y110.537 E6.8645
G1 X136.319 Y110.173 E6.8744
G1 X136.276 Y108.977 E6.89613
G1 X136.382 Y108.451 E6.90587
G1 X136.444 Y107.492 E6.92332
G1 X136.38 Y106.533 E6.94077
G1 X136.191 Y105.602 E6.95802
G1 X136.084 Y105.292 E6.96397
G1 X136.077 Y104.628 E6.97603
G1 X135.704 Y104.262 E6.98552
G1 X135.663 Y104.262 E6.98626
G1 X135.453 Y103.84 E6.99482
G1 X134.913 Y103.045 E7.01227
G1 X134.28 Y102.334 E7.02955
G1 X133.555 Y101.712 E7.0469
G1 X133.215 Y101.49 E7.05427
G1 X133.42 Y101.392 E7.05839
G1 X133.77 Y101.449 E7.06483
G1 X134.91 Y101.449 E7.08553
G1 X135.125 Y101.415 E7.08948
G1 X135.247 Y101.437 E7.09173
G1 X135.834 Y101.437 E7.10239
G1 X135.958 Y101.453 E7.10466
G1 X136.241 Y101.457 E7.1098
G1 X136.907 Y101.42 E7.12191
G1 X137.109 Y101.332 E7.12591
G1 X138.764 Y101.379 E7.15597
G1 X139.015 Y101.296 E7.16077
G1 X139.91 Y101.473 E7.17734
G1 X139.957 Y101.491 E7.17825
G1 X140.004 Y101.521 E7.17926
G1 X140.033 Y101.552 E7.18003
G1 X140.074 Y101.648 E7.18193
G1 X140.076 Y103.673 E7.21869
G1 X138.536 Y105.896 E7.26779
G1 X138.774 Y106.431 E7.27843
G1 X142.072 Y106.871 E7.33883
G1 X142.275 Y106.927 E7.34266
G1 X142.332 Y106.967 E7.34392
G1 X142.393 Y107.047 E7.34575
G1 X142.407 Y107.096 E7.34667
G1 X142.4 Y107.786 E7.3592
G1 X141.996 Y108.078 E7.36825
G1 X141.855 Y108.12 E7.37092
G1 X140.182 Y108.423 E7.40179
G1 X139.86 Y108.806 E7.41088
G1 X139.839 Y113.338 E7.49316
G1 X139.793 Y113.438 E7.49516
G1 X139.721 Y113.502 E7.49691
G1 X139.669 Y113.534 E7.49802
G1 X139.53 Y113.574 E7.50065
G1 X138.861 Y113.571 E7.51279
G1 X138.519 Y113.596 E7.51902
G1 X138.168 Y113.566 E7.52541
G1 X137.833 Y113.566 E7.5315
G1 X137.542 Y113.602 E7.53682
G1 X137.223 Y113.549 E7.54269
G1 X136.804 Y113.597 E7.55035
G1 X136.554 Y113.595 E7.55489
G1 X136.142 Y113.55 E7.56241
G1 X135.627 Y113.636 E7.57189
G1 X135.328 Y113.529 E7.57766
G1 X134.641 Y113.615 E7.59023
G1 X134.332 Y113.526 E7.59607
G1 X133.87 Y113.584 E7.60452
G1 X133.311 Y113.525 E7.61473
G1 X133.193 Y113.525 E7.61687
M204 S625
M205 X6 Y6
G0 F3750 X135.314 Y113.319
M204 S500
M205 X5 Y5
G1 F1200 X135.314 Y111.737 E7.64559
M204 S625
M205 X6 Y6
G0 F3750 X135.147 Y111.984
M204 S500
M205 X5 Y5
G1 F1200 X139.635 Y111.984 E7.72708
M204 S625
M205 X6 Y6
G0 F3750 X139.645 Y109.651
M204 S500
M205 X5 Y5
G1 F1200 X136.51 Y109.651 E7.784
M204 S625
M205 X6 Y6
G0 F3750 X136.642 Y107.318
M204 S500
M205 X5 Y5
G1 F1200 X142.194 Y107.318 E7.8848
M204 S625
M205 X6 Y6
G0 F3750 X139.98 Y106.804
M204 S500
M205 X5 Y5
G1 F1200 X139.98 Y108.337 E7.91263
M204 S625
M205 X6 Y6
G0 F3750 X138.91 Y104.985
M204 S500
M205 X5 Y5
G1 F1200 X136.291 Y104.985 E7.96019
M204 S625
M205 X6 Y6
G0 F3750 X135.314 Y103.261
M204 S500
M205 X5 Y5
G1 F1200 X135.314 Y101.647 E7.98949
M204 S625
M205 X6 Y6
G0 F3750 X134.844 Y102.652
M204 S500
M205 X5 Y5
G1 F1200 X139.866 Y102.652 E8.08067
M204 S625
M205 X6 Y6
G0 F3750 X137.647 Y101.558
M204 S500
M205 X5 Y5
G1 F1200 X137.647 Y113.378 E8.29528
M204 S625
M205 X6 Y6
G1 F1500 E1.79528
;MESH:/tmp/slicer3_cstlex_78b4e2f0-3ddd-11ec-ba73-113593f05e44_1636078197311/T0.stl
G0 F3750 X133.946 Y112.204
G0 X133.086 Y111.445
G0 X116.079 Y110.207
G0 X115.224 Y109.923
G0 X114.505 Y109.378
G0 X112.807 Y106.827
G0 X112.444 Y106.001
G0 X111.834 Y105.337
G0 X111.04 Y104.908
G0 X110.176 Y104.761
G0 X103.348 Y104.796
G0 X101.546 Y105.425
M204 S500
M205 X5 Y5
;TYPE:WALL-INNER
G1 F1500 E8.29528
G1 F1200 X101.237 Y105.824 E8.30313
G1 X100.995 Y106.267 E8.31099
G1 X100.831 Y106.747 E8.31888
G1 X100.747 Y107.248 E8.32679
G1 X100.747 Y107.752 E8.33463
G1 X100.831 Y108.253 E8.34253
G1 X100.995 Y108.733 E8.35043
G1 X101.237 Y109.176 E8.35828
G1 X101.546 Y109.575 E8.36614
G1 X101.919 Y109.917 E8.37401
G1 X102.343 Y110.194 E8.3819
G1 X102.805 Y110.397 E8.38975
G1 X103.294 Y110.521 E8.3976
G1 X103.76 Y110.56 E8.40488
G1 X110.19 Y110.56 E8.50494
G1 X110.656 Y110.521 E8.51222
G1 X111.144 Y110.397 E8.52006
G1 X111.608 Y110.194 E8.52794
G1 X112.032 Y109.917 E8.53582
G1 X112.404 Y109.574 E8.5437
G1 X112.713 Y109.176 E8.55154
G1 X112.955 Y108.733 E8.55939
G1 X113.119 Y108.253 E8.56729
G1 X113.152 Y108.06 E8.57033
G1 X113.203 Y107.752 E8.57519
G1 X113.203 Y107.281 E8.58252
G1 X113.203 Y107.248 E8.58304
G1 X113.145 Y106.901 E8.58851
G1 X113.119 Y106.747 E8.59094
G1 X112.955 Y106.267 E8.59883
G1 X112.713 Y105.824 E8.60669
G1 X112.404 Y105.426 E8.61453
G1 X112.032 Y105.083 E8.62241
G1 X111.608 Y104.806 E8.63029
G1 X111.144 Y104.603 E8.63817
G1 X110.656 Y104.479 E8.64601
G1 X110.19 Y104.44 E8.65328
G1 X103.76 Y104.44 E8.75335
G1 X103.294 Y104.479 E8.76063
G1 X102.805 Y104.603 E8.76848
G1 X102.343 Y104.806 E8.77633
G1 X101.919 Y105.083 E8.78421
G1 X101.546 Y105.425 E8.79209
M204 S625
M205 X6 Y6
G0 F3750 X101.812 Y105.67
M204 S500
M205 X5 Y5
G1 F1200 X101.539 Y106.022 E8.79902
G1 X101.326 Y106.413 E8.80595
G1 X101.181 Y106.836 E8.81291
G1 X101.107 Y107.278 E8.81988
G1 X101.107 Y107.722 E8.82679
G1 X101.181 Y108.164 E8.83377
G1 X101.326 Y108.587 E8.84073
G1 X101.539 Y108.978 E8.84766
G1 X101.812 Y109.33 E8.85459
G1 X102.141 Y109.632 E8.86154
G1 X102.515 Y109.876 E8.86849
G1 X102.923 Y110.055 E8.87542
G1 X103.354 Y110.165 E8.88234
G1 X103.775 Y110.2 E8.88892
G1 X110.175 Y110.2 E8.98852
G1 X110.596 Y110.165 E8.99509
G1 X111.027 Y110.055 E9.00202
G1 X111.436 Y109.876 E9.00896
G1 X111.81 Y109.632 E9.01591
G1 X112.138 Y109.33 E9.02285
G1 X112.411 Y108.978 E9.02978
G1 X112.624 Y108.587 E9.03671
G1 X112.769 Y108.164 E9.04367
G1 X112.843 Y107.722 E9.05065
G1 X112.843 Y107.278 E9.05756
G1 X112.769 Y106.836 E9.06453
G1 X112.624 Y106.413 E9.07149
G1 X112.411 Y106.022 E9.07842
G1 X112.138 Y105.67 E9.08535
G1 X111.81 Y105.368 E9.09229
G1 X111.436 Y105.124 E9.09924
G1 X111.027 Y104.945 E9.10619
G1 X110.596 Y104.835 E9.11311
G1 X110.175 Y104.8 E9.11968
G1 X103.775 Y104.8 E9.21928
G1 X103.354 Y104.835 E9.22586
G1 X102.923 Y104.945 E9.23278
G1 X102.515 Y105.124 E9.23971
G1 X102.141 Y105.368 E9.24666
G1 X101.812 Y105.67 E9.25361
M204 S625
M205 X6 Y6
G0 F3750 X102.1 Y105.935
M204 S500
M205 X5 Y5
;TYPE:WALL-OUTER
G1 F1200 X101.866 Y106.236 E9.26054
G1 X101.684 Y106.571 E9.26746
G1 X101.56 Y106.932 E9.27439
G1 X101.497 Y107.31 E9.28135
G1 X101.497 Y107.69 E9.28825
G1 X101.56 Y108.068 E9.2952
G1 X101.684 Y108.429 E9.30213
G1 X101.866 Y108.764 E9.30906
G1 X102.1 Y109.065 E9.31598
G1 X102.381 Y109.323 E9.3229
G1 X102.701 Y109.532 E9.32984
G1 X103.05 Y109.685 E9.33676
G1 X103.419 Y109.779 E9.34368
G1 X103.791 Y109.81 E9.35045
G1 X110.159 Y109.81 E9.46607
G1 X110.531 Y109.779 E9.47285
G1 X110.9 Y109.685 E9.47976
G1 X111.25 Y109.532 E9.4867
G1 X111.57 Y109.323 E9.49364
G1 X111.85 Y109.065 E9.50055
G1 X112.084 Y108.764 E9.50747
G1 X112.266 Y108.429 E9.51439
G1 X112.39 Y108.068 E9.52132
G1 X112.453 Y107.69 E9.52828
G1 X112.453 Y107.31 E9.53518
G1 X112.39 Y106.932 E9.54214
G1 X112.266 Y106.571 E9.54907
G1 X112.084 Y106.236 E9.55599
G1 X111.85 Y105.935 E9.56291
G1 X111.57 Y105.677 E9.56983
G1 X111.25 Y105.468 E9.57677
G1 X110.9 Y105.315 E9.5837
G1 X110.531 Y105.221 E9.59061
G1 X110.159 Y105.19 E9.59739
G1 X103.791 Y105.19 E9.71301
G1 X103.419 Y105.221 E9.71979
G1 X103.05 Y105.315 E9.7267
G1 X102.701 Y105.468 E9.73362
G1 X102.381 Y105.677 E9.74056
G1 X102.1 Y105.935 E9.74749
M204 S625
M205 X6 Y6
G0 F3750 X101.978 Y106.093
G0 X101.614 Y105.809
G0 X101.592 Y105.791
G0 X102.496 Y105.089
G0 X103.348 Y104.796
G0 X115.474 Y104.614
M204 S500
M205 X5 Y5
;TYPE:WALL-INNER
G1 F1200 X115.013 Y104.825 E9.75538
G1 X114.593 Y105.105 E9.76323
G1 X114.225 Y105.451 E9.77109
G1 X113.938 Y105.83 E9.77849
G1 X113.919 Y105.854 E9.77897
G1 X113.683 Y106.299 E9.78681
G1 X113.533 Y106.755 E9.79428
G1 X113.523 Y106.783 E9.79474
G1 X113.5 Y106.933 E9.7971
G1 X113.447 Y107.281 E9.80173
G1 X113.45 Y107.75 E9.80672
G1 X113.451 Y107.787 E9.80729
G1 X113.506 Y108.094 E9.81142
