;Generated by Cura LulzBot Edition GCodeWriter Version: 3.6.3
;FLAVOR:Marlin
;TIME:6981
;Filament used: 3.9806m
;Layer height: 0.38
;Generated with Cura_SteamEngine 3.6.3
M82 ;absolute extrusion mode
M221 S100
;This G-Code has been generated specifically for the LulzBot TAZ 6 with standard extruder
M73 P0 ; clear GLCD progress bar
M75 ; start GLCD timer
G26 ; clear potential 'probe fail' condition
M107 ; disable fans
M420 S0 ; disable previous leveling matrix
G90 ; absolute positioning
M82 ; set extruder to absolute mode
G92 E0 ; set extruder position to 0
M140 S60 ; start bed heating up
M109 R140 ; soften filament before homing Z
G28 ; Home all axis
G1 E-30 F100 ; retract filament
M109 R140 ; wait for extruder to reach wiping temp
G1 X-15 Y100 F3000 ; move above wiper pad
G1 Z1 ; push nozzle into wiper
G1 X-17 Y95 F1000 ; slow wipe
G1 X-17 Y90 F1000 ; slow wipe
G1 X-17 Y85 F1000 ; slow wipe
G1 X-15 Y90 F1000 ; slow wipe
G1 X-17 Y80 F1000 ; slow wipe
G1 X-15 Y95 F1000 ; slow wipe
G1 X-17 Y75 F2000 ; fast wipe
G1 X-15 Y65 F2000 ; fast wipe
G1 X-17 Y70 F2000 ; fast wipe
G1 X-15 Y60 F2000 ; fast wipe
G1 X-17 Y55 F2000 ; fast wipe
G1 X-15 Y50 F2000 ; fast wipe
G1 X-17 Y40 F2000 ; fast wipe
G1 X-15 Y45 F2000 ; fast wipe
G1 X-17 Y35 F2000 ; fast wipe
G1 X-15 Y40 F2000 ; fast wipe
G1 X-17 Y70 F2000 ; fast wipe
G1 X-15 Y30 Z2 F2000 ; fast wipe
G1 X-17 Y35 F2000 ; fast wipe
G1 X-15 Y25 F2000 ; fast wipe
G1 X-17 Y30 F2000 ; fast wipe
G1 X-15 Y25 Z1.5 F1000 ; slow wipe
G1 X-17 Y23 F1000 ; slow wipe
G1 Z10 ; raise extruder
M109 R140 ; wait for extruder to reach probe temp
G1 X-9 Y-9 ; move above first probe point
M204 S100 ; set probing acceleration
G29 ; start auto-leveling sequence
M420 S1 ; activate bed level matrix
M425 Z			     ; use measured Z backlash for compensation
M425 Z F0		     ; turn off measured Z backlash compensation. (if activated in the quality settings, this command will automatically be ignored)
M204 S500 ; restore standard acceleration
G1 X0 Y0 Z15 F5000 ; move up off last probe point
G4 S1 ; pause
M400 ; wait for moves to finish
M117 Heating... ; progress indicator message on LCD
M109 R210 ; wait for extruder to reach printing temp
M190 S60 ; wait for bed to reach printing temp
G1 Z2 E0 F75 ; prime tiny bit of filament into the nozzle
M117 TAZ 6 Printing... ; progress indicator message on LCD

G92 E0
G1 F600 E-1
;LAYER_COUNT:87
;LAYER:0
M107
G0 F2625 X72.805 Y122.049 Z0.425
;TYPE:SKIRT
G1 F600 E0
G1 F900 X73.089 Y121.9 E0.01068
G1 X74.772 Y121.119 E0.07249
G1 X75.011 Y121.019 E0.08112
G1 X77.462 Y120.111 E0.16818
G1 X77.67 Y120.042 E0.17548
G1 X78.756 Y119.721 E0.2132
G1 X78.977 Y119.664 E0.22081
G1 X81.114 Y119.193 E0.2937
G1 X81.432 Y119.139 E0.30444
G1 X83.995 Y118.836 E0.39041
G1 X84.332 Y118.814 E0.40166
G1 X86.918 Y118.778 E0.48781
G1 X87.215 Y118.788 E0.49771
G1 X91.375 Y119.111 E0.6367
G1 X96.86 Y119.291 E0.8195
G1 X102.324 Y119.16 E1.00156
G1 X107.804 Y118.72 E1.18469
G1 X113.207 Y117.975 E1.36637
G1 X118.569 Y116.925 E1.54837
G1 X121.213 Y116.29 E1.63895
G1 X126.515 Y114.775 E1.82263
G1 X131.153 Y113.185 E1.98595
G1 X131.406 Y113.109 E1.99475
G1 X134.497 Y112.323 E2.10099
G1 X134.814 Y112.259 E2.11176
G1 X137.053 Y111.922 E2.18718
G1 X137.391 Y111.889 E2.1985
G1 X140.076 Y111.768 E2.28803
G1 X140.415 Y111.771 E2.29932
G1 X143.003 Y111.925 E2.38568
G1 X143.349 Y111.964 E2.39728
G1 X146.009 Y112.411 E2.48712
G1 X146.336 Y112.484 E2.49828
G1 X148.253 Y113.014 E2.56454
G1 X148.432 Y113.068 E2.57076
G1 X152.538 Y114.462 E2.7152
G1 X157.806 Y116.029 E2.89828
G1 X163.157 Y117.297 E3.08146
G1 X165.776 Y117.799 E3.17029
G1 X171.219 Y118.608 E3.35359
G1 X176.682 Y119.108 E3.53632
G1 X182.142 Y119.296 E3.71831
G1 X187.622 Y119.175 E3.90089
G1 X192.748 Y118.799 E4.0721
G1 X192.989 Y118.79 E4.08013
G1 X195.412 Y118.792 E4.16084
G1 X195.744 Y118.809 E4.17192
G1 X198.341 Y119.078 E4.25889
G1 X198.713 Y119.139 E4.27144
G1 X201.7 Y119.805 E4.37339
G1 X202.022 Y119.894 E4.38451
G1 X204.258 Y120.64 E4.46303
G1 X204.567 Y120.761 E4.47409
G1 X206.95 Y121.838 E4.56119
G1 X207.239 Y121.987 E4.57203
G1 X209.333 Y123.198 E4.6526
G1 X209.61 Y123.377 E4.66359
G1 X211.725 Y124.906 E4.75052
G1 X211.988 Y125.118 E4.76177
G1 X213.922 Y126.849 E4.84823
G1 X214.194 Y127.123 E4.86109
G1 X216.294 Y129.508 E4.96694
G1 X216.504 Y129.774 E4.97823
G1 X217.844 Y131.66 E5.0553
G1 X218.008 Y131.915 E5.0654
G1 X219.165 Y133.915 E5.14236
G1 X219.315 Y134.207 E5.1533
G1 X220.403 Y136.623 E5.24156
G1 X220.527 Y136.943 E5.25299
G1 X221.351 Y139.449 E5.34086
G1 X221.441 Y139.778 E5.35223
G1 X221.988 Y142.311 E5.43855
G1 X222.061 Y142.997 E5.46153
G1 X222.062 Y150.988 E5.72771
G1 X221.989 Y151.672 E5.75062
G1 X221.438 Y154.23 E5.83779
G1 X221.349 Y154.56 E5.84917
G1 X220.536 Y157.035 E5.93595
G1 X220.421 Y157.334 E5.94662
G1 X219.658 Y159.061 E6.00951
G1 X219.549 Y159.285 E6.01781
G1 X218.41 Y161.407 E6.09803
G1 X218.241 Y161.686 E6.1089
G1 X216.782 Y163.851 E6.19586
G1 X216.545 Y164.161 E6.20886
G1 X214.221 Y166.848 E6.3272
G1 X213.933 Y167.142 E6.34091
G1 X212.028 Y168.85 E6.42613
G1 X211.73 Y169.087 E6.43882
G1 X209.152 Y170.903 E6.54386
G1 X208.868 Y171.082 E6.55504
G1 X206.834 Y172.221 E6.63269
G1 X206.515 Y172.377 E6.64452
G1 X203.888 Y173.491 E6.73957
G1 X203.554 Y173.612 E6.7514
G1 X201 Y174.379 E6.84023
G1 X200.673 Y174.459 E6.85145
G1 X198.142 Y174.941 E6.93727
G1 X197.803 Y174.987 E6.94867
G1 X195.163 Y175.206 E7.03691
G1 X194.829 Y175.216 E7.04804
G1 X192.285 Y175.165 E7.1328
G1 X191.946 Y175.141 E7.14412
G1 X189.343 Y174.815 E7.2315
G1 X189.036 Y174.761 E7.24188
G1 X186.754 Y174.249 E7.31979
G1 X186.444 Y174.163 E7.3305
G1 X180.151 Y172.081 E7.5513
G1 X174.86 Y170.598 E7.73434
G1 X172.178 Y169.968 E7.82611
G1 X169.551 Y169.429 E7.91544
G1 X164.117 Y168.552 E8.09879
G1 X158.661 Y167.986 E8.28151
G1 X153.22 Y167.731 E8.46295
G1 X147.723 Y167.784 E8.64606
G1 X142.218 Y168.135 E8.82981
G1 X142.096 Y168.141 E8.83388
G1 X139.386 Y168.212 E8.92418
G1 X139.132 Y168.209 E8.93264
G1 X130.178 Y167.743 E9.2313
G1 X124.715 Y167.814 E9.41329
G1 X119.262 Y168.194 E9.59538
G1 X113.837 Y168.882 E9.77753
G1 X108.433 Y169.88 E9.96059
G1 X105.816 Y170.479 E10.05001
G1 X103.161 Y171.166 E10.14136
G1 X93.065 Y174.342 E10.49391
G1 X92.676 Y174.439 E10.50727
G1 X89.688 Y174.987 E10.60846
G1 X89.361 Y175.03 E10.61945
G1 X87.03 Y175.216 E10.69734
G1 X86.697 Y175.225 E10.70844
G1 X84.075 Y175.165 E10.7958
G1 X83.741 Y175.14 E10.80695
G1 X81.19 Y174.817 E10.89261
G1 X80.848 Y174.755 E10.90419
G1 X78.234 Y174.135 E10.99367
G1 X77.932 Y174.048 E11.00414
G1 X75.748 Y173.301 E11.08103
G1 X75.447 Y173.181 E11.09182
G1 X73.112 Y172.112 E11.17737
G1 X72.788 Y171.941 E11.18957
G1 X70.277 Y170.429 E11.28721
G1 X70.011 Y170.25 E11.29789
G1 X68.196 Y168.896 E11.37332
G1 X67.947 Y168.69 E11.38408
G1 X66.038 Y166.946 E11.47021
G1 X65.812 Y166.718 E11.4809
G1 X64.511 Y165.269 E11.54577
G1 X64.34 Y165.062 E11.55472
G1 X62.799 Y163.031 E11.63964
G1 X62.58 Y162.703 E11.65278
G1 X60.739 Y159.543 E11.7746
G1 X60.548 Y159.16 E11.78885
G1 X59.5 Y156.653 E11.87937
G1 X59.386 Y156.334 E11.89065
G1 X58.647 Y153.872 E11.97627
G1 X58.573 Y153.575 E11.98647
G1 X58.121 Y151.312 E12.06334
G1 X58.074 Y151.001 E12.07382
G1 X57.833 Y148.612 E12.1538
G1 X57.817 Y148.286 E12.16467
G1 X57.817 Y145.712 E12.25041
G1 X57.835 Y145.375 E12.26165
G1 X58.106 Y142.778 E12.34863
G1 X58.158 Y142.446 E12.35982
G1 X58.689 Y139.921 E12.44577
G1 X58.776 Y139.593 E12.45708
G1 X59.572 Y137.122 E12.54355
G1 X59.706 Y136.775 E12.55594
G1 X60.954 Y134.027 E12.65648
G1 X61.123 Y133.705 E12.66859
G1 X62.484 Y131.426 E12.75701
G1 X62.653 Y131.17 E12.76723
G1 X64.01 Y129.319 E12.84368
G1 X64.221 Y129.061 E12.85478
G1 X65.982 Y127.114 E12.94223
G1 X66.209 Y126.886 E12.95295
G1 X67.968 Y125.291 E13.03204
G1 X68.22 Y125.085 E13.04289
G1 X70.308 Y123.543 E13.12935
G1 X70.587 Y123.358 E13.1405
G1 X72.805 Y122.049 E13.22629
G1 F600 E12.22629
G0 F2625 X84.322 Y121.392
G0 X86.987 Y121.354
G0 X89.641 Y121.591
G0 X92.248 Y122.102
G0 X94.794 Y122.881
G0 X97.247 Y123.919
G0 X99.582 Y125.209
G0 X101.765 Y126.731
G0 X103.777 Y128.466
G0 X105.613 Y130.418
G0 X107.219 Y132.527
G0 X108.572 Y134.743
G0 X109.744 Y137.205
G0 X110.633 Y139.716
G0 X111.254 Y142.297
G0 X111.615 Y145.041
G0 X111.068 Y145.661
G0 X104.817 Y146.75
;TYPE:SUPPORT
G1 F600 E13.22629
G1 F900 X107.069 Y146.75 E13.3013
G1 X107.069 Y147.25 E13.31796
G1 X104.817 Y147.25 E13.39297
G1 X104.817 Y146.75 E13.40963
G1 F600 E12.40963
;MESH:
G0 F2625 X104.817 Y144.23
G0 X108.475 Y142.774
G0 X107.582 Y139.61
G0 X106.767 Y137.558
G0 X105.735 Y135.563
G0 X104.058 Y133.001
G0 X101.697 Y134.149
G0 X100.465 Y133.671
G0 X99.792 Y133.18
G0 X99.314 Y132.477
G0 X99.098 Y131.666
G0 X99.167 Y130.825
G0 X99.358 Y130.393
G0 X100.091 Y128.96
G0 X99.993 Y128.977
;TYPE:WALL-INNER
G1 F600 E13.40963
G1 F900 X99.92 Y128.93 E13.41252
G1 X97.402 Y127.3 E13.51244
G1 X95.247 Y126.202 E13.593
G1 X93.03 Y125.355 E13.67206
G1 X90.738 Y124.742 E13.75109
G1 X88.393 Y124.373 E13.83016
G1 X86.023 Y124.249 E13.90921
G1 X83.654 Y124.373 E13.98823
G1 X81.309 Y124.742 E14.06731
G1 X79.017 Y125.355 E14.14634
G1 X76.799 Y126.202 E14.22543
G1 X74.646 Y127.299 E14.30592
G1 X72.226 Y128.865 E14.40193
G1 X72.054 Y128.976 E14.40875
G1 X72.121 Y129.067 E14.41252
G1 X72.243 Y129.232 E14.41743
G1 X72.359 Y129.388 E14.4239
G1 X72.603 Y129.719 E14.4376
G1 X72.786 Y129.967 E14.44787
G1 X72.857 Y130.099 E14.45286
G1 X73.054 Y130.466 E14.46674
G1 X73.207 Y130.75 E14.47748
G1 X73.249 Y130.75 E14.47888
G1 X98.765 Y130.75 E15.32883
G1 X98.838 Y130.75 E15.33126
G1 X98.884 Y130.665 E15.33448
G1 X99.079 Y130.303 E15.34818
G1 X99.258 Y129.972 E15.36071
G1 X99.305 Y129.908 E15.36335
G1 X99.554 Y129.572 E15.37729
G1 X99.743 Y129.315 E15.38791
G1 X99.795 Y129.245 E15.39046
G1 X99.993 Y128.977 E15.40156
G0 F2625 X100.091 Y128.96
G0 X98.858 Y130.784
G0 X72.938 Y132.714
G0 X71.223 Y134.042
G0 X69.07 Y133.763
G0 X67.989 Y133.001
G0 X66.347 Y135.505
G0 X65.284 Y137.551
G0 X64.452 Y139.645
G0 X63.572 Y142.774
G0 X64.203 Y144.18
G0 X64.273 Y144.25
G1 F900 X64.273 Y149.75 E15.58477
G1 X83.489 Y149.75 E16.22486
G1 X83.685 Y149.934 E16.23382
G1 X84.209 Y150.285 E16.25482
G1 X84.784 Y150.543 E16.27582
G1 X85.395 Y150.7 E16.29683
G1 X85.989 Y150.751 E16.31669
G1 X86.023 Y150.753 E16.31782
G1 X86.057 Y150.751 E16.31896
G1 X86.652 Y150.7 E16.33885
G1 X87.263 Y150.543 E16.35987
G1 X87.838 Y150.285 E16.38086
G1 X88.362 Y149.934 E16.40187
G1 X88.558 Y149.75 E16.41082
G1 X109.801 Y149.75 E17.11843
G1 X109.802 Y149.75 E17.11847
G1 X110.086 Y149.75 E17.12793
G1 X110.049 Y150.032 E17.13384
G1 X109.862 Y151.442 E17.18122
G1 X109.277 Y153.877 E17.26464
G1 X108.439 Y156.245 E17.34831
G1 X107.311 Y158.611 E17.43562
G1 X106.314 Y160.249 E17.4995
G1 X106.231 Y160.371 E17.50441
G1 X105.974 Y160.783 E17.52059
G1 X104.832 Y162.285 E17.58344
G1 X104.49 Y162.715 E17.60174
G1 X102.8 Y164.509 E17.68384
G1 X100.934 Y166.122 E17.766
G1 X98.842 Y167.583 E17.851
G1 X96.626 Y168.808 E17.93534
G1 X94.318 Y169.786 E18.01884
G1 X91.916 Y170.522 E18.10252
G1 X89.446 Y171.007 E18.18637
G1 X86.94 Y171.232 E18.27018
G1 X84.425 Y171.196 E18.35396
G1 X81.927 Y170.901 E18.43775
G1 X79.474 Y170.347 E18.52152
G1 X77.085 Y169.541 E18.6055
G1 X74.799 Y168.496 E18.68923
G1 X72.597 Y167.19 E18.77451
G1 X70.615 Y165.724 E18.85663
G1 X70.271 Y165.41 E18.87214
G1 X70 Y165.162 E18.88438
G1 X69.734 Y164.918 E18.8964
G1 X69.691 Y164.879 E18.89834
G1 X69.747 Y164.902
G1 X70.155 Y164.99 E18.90286
G1 X70.523 Y165.005 E18.91203
G1 X70.572 Y165.007 E18.91367
G1 X70.984 Y164.953 E18.92751
G1 X71.382 Y164.833 E18.94136
G1 X71.754 Y164.644 E18.95526
G1 X71.764 Y164.637 E18.95566
G1 X71.864 Y164.563 E18.95981
G1 X72.087 Y164.397 E18.96907
G1 X72.376 Y164.097 E18.98294
G1 X72.533 Y163.863 E18.99233
G1 X72.608 Y163.752 E18.99679
G1 X72.78 Y163.374 E19.01062
G1 X72.836 Y163.156 E19.01812
G1 X72.884 Y162.97 E19.02452
G1 X72.887 Y162.932 E19.02579
G1 X72.92 Y162.554 E19.03843
G1 X72.881 Y162.131 E19.05258
G1 X72.776 Y161.73 E19.06639
G1 X72.669 Y161.498 E19.0749
G1 X72.625 Y161.401 E19.07845
G1 X72.602 Y161.35 E19.08031
G1 X72.367 Y161.006 E19.09419
G1 X72.175 Y160.808 E19.10337
G1 X72.078 Y160.707 E19.10804
G1 X71.873 Y160.558 E19.11648
G1 X71.741 Y160.462 E19.12192
G1 X71.522 Y160.353 E19.13007
G1 X71.369 Y160.277 E19.13576
G1 X71.149 Y160.211 E19.14341
G1 X70.973 Y160.158 E19.14953
G1 X70.755 Y160.13 E19.15685
G1 X70.561 Y160.105 E19.16337
G1 X70.353 Y160.115 E19.1703
G1 X70.144 Y160.126 E19.17727
G1 X69.953 Y160.168 E19.18379
G1 X69.74 Y160.215 E19.19105
G1 X69.579 Y160.28 E19.19684
G1 X69.353 Y160.371 E19.20495
G1 X69.211 Y160.46 E19.21054
G1 X68.999 Y160.592 E19.21885
G1 X68.69 Y160.867 E19.23263
G1 X68.429 Y161.192 E19.24652
G1 X68.227 Y161.557 E19.26041
G1 X68.092 Y161.95 E19.27426
G1 X68.023 Y162.357 E19.28801
G1 X68.023 Y162.486 E19.2923
G1 X68.023 Y162.765 E19.3016
G1 X68.093 Y163.174 E19.31542
G1 X68.155 Y163.348 E19.32157
G1 X68.042 Y163.22 E19.32182
G1 X67.808 Y162.957 E19.32697
G1 X67.623 Y162.749 E19.3344
G1 X67.08 Y162.137 E19.36166
G1 X65.616 Y160.099 E19.44524
G1 X64.375 Y157.926 E19.5286
G1 X63.354 Y155.609 E19.61294
G1 X62.585 Y153.22 E19.69654
G1 X62.068 Y150.76 E19.78027
G1 X61.807 Y148.258 E19.86407
G1 X61.807 Y145.742 E19.94788
G1 X62.068 Y143.24 E20.03167
G1 X62.585 Y140.78 E20.11541
G1 X63.354 Y138.391 E20.19901
G1 X64.375 Y136.074 E20.28335
G1 X65.616 Y133.901 E20.3667
G1 X67.086 Y131.855 E20.45062
G1 X67.624 Y131.248 E20.47764
G1 X67.801 Y131.049 E20.48651
G1 X68.035 Y130.786 E20.49824
G1 X68.157 Y130.649 E20.50435
G1 X68.092 Y130.837 E20.50519
G1 X68.023 Y131.245 E20.51126
G1 X68.023 Y131.512 E20.51847
G1 X68.024 Y131.665 E20.52356
G1 X68.098 Y132.074 E20.53741
G1 X68.237 Y132.463 E20.55117
G1 X68.425 Y132.799 E20.56399
G1 X68.441 Y132.827 E20.56507
G1 X68.706 Y133.15 E20.57898
G1 X69.017 Y133.421 E20.59272
G1 X69.208 Y133.537 E20.60017
G1 X69.373 Y133.638 E20.60661
G1 X69.577 Y133.719 E20.61392
G1 X69.76 Y133.792 E20.62049
G1 X69.949 Y133.831 E20.62691
G1 X70.166 Y133.877 E20.6343
G1 X70.349 Y133.884 E20.6404
G1 X70.583 Y133.893 E20.6482
G1 X70.752 Y133.871 E20.65388
G1 X70.996 Y133.838 E20.66208
G1 X71.144 Y133.792 E20.66725
G1 X71.393 Y133.713 E20.67595
G1 X71.517 Y133.65 E20.68058
G1 X71.76 Y133.525 E20.68968
G1 X71.87 Y133.444 E20.69423
G1 X72.095 Y133.278 E20.70355
G1 X72.173 Y133.196 E20.70732
G1 X72.382 Y132.975 E20.71745
G1 X72.613 Y132.63 E20.73128
G1 X72.624 Y132.604 E20.73222
G1 X72.667 Y132.507 E20.73575
G1 X72.783 Y132.249 E20.74518
G1 X72.886 Y131.846 E20.75903
G1 X72.919 Y131.432 E20.77287
G1 X72.884 Y131.059 E20.78535
G1 X72.881 Y131.018 E20.78672
G1 X72.837 Y130.848 E20.79142
G1 X72.776 Y130.617 E20.79656
G1 X72.602 Y130.237 E20.80512
G1 X72.536 Y130.14 E20.80722
G1 X72.367 Y129.894 E20.81309
G1 X72.079 Y129.596 E20.82197
G1 X71.923 Y129.482 E20.82744
G1 X71.767 Y129.367 E20.83366
G1 X71.742 Y129.349 E20.83468
G1 X71.369 Y129.164 E20.84855
G1 X70.973 Y129.045 E20.86232
G1 X70.569 Y128.993 E20.87589
G1 X70.561 Y128.992 E20.87616
G1 X70.144 Y129.013 E20.89007
G1 X69.738 Y129.102 E20.90391
G1 X69.69 Y129.122 E20.90565
G1 X69.726 Y129.089
G1 X69.991 Y128.847 E20.90924
G1 X70.228 Y128.63 E20.91789
G1 X70.234 Y128.624 E20.91817
G1 X70.615 Y128.276 E20.93536
G1 X72.636 Y126.782 E21.01908
G1 X74.802 Y125.504 E21.10285
G1 X77.085 Y124.459 E21.18649
G1 X79.474 Y123.653 E21.27047
G1 X81.927 Y123.099 E21.35424
G1 X84.425 Y122.804 E21.43803
G1 X86.94 Y122.768 E21.52181
G1 X89.446 Y122.993 E21.60562
G1 X91.916 Y123.478 E21.68947
G1 X94.318 Y124.214 E21.77315
G1 X96.626 Y125.192 E21.85665
G1 X98.843 Y126.417 E21.94103
G1 X100.897 Y127.849 E22.02443
G1 X101.773 Y128.605 E22.06297
G1 X101.907 Y128.72 E22.06886
G1 X102.17 Y128.947 E22.08043
G1 X102.389 Y129.136 E22.09007
G1 X102.087 Y129.045 E22.09198
G1 X101.674 Y128.992 E22.09958
G1 X101.497 Y129 E22.10471
G1 X101.257 Y129.013 E22.11272
G1 X100.851 Y129.102 E22.12656
G1 X100.465 Y129.259 E22.14044
G1 X100.253 Y129.391 E22.14858
G1 X100.113 Y129.479 E22.15313
G1 X100.048 Y129.536 E22.15586
